img/icones/servicos/bateria-icone.svg

<svg width="24" height="24" fill="none" xmlns="http://www.w3.org/2000/svg"><path d="M15.67 4H14V3c0-.55-.45-1-1-1h-2c-.55 0-1 .45-1 1v1H8.33C7.6 4 7 4.6 7 5.33v15.33C7 21.4 7.6 22 8.34 22h7.32c.74 0 1.34-.6 1.34-1.33V5.33C17 4.6 16.4 4 15.67 4Zm-1.06 9.24-2.67 5c-.24.45-.94.28-.94-.24v-3.5H9.83a.5.5 0 0 1-.44-.74l2.67-5c.24-.45.94-.28.94.24v3.5h1.17c.37 0 .62.4.44.74Z" fill="url(#a)"/><defs><linearGradient id="a" x1="12" y1="2.4" x2="19.324" y2="18.206" gradientUnits="userSpaceOnUse"><stop stop-color="#345EC2"/><stop offset="1" stop-color="#113896"/></linearGradient></defs></svg>

<svg width="24" height="24" viewBox="0 0 24 24" fill="none" xmlns="http://www.w3.org/2000/svg">
<path d="M15.67 4H14V3C14 2.45 13.55 2 13 2H11C10.45 2 10 2.45 10 3V4H8.33C7.6 4 7 4.6 7 5.33V20.66C7 21.4 7.6 22 8.34 22H15.66C16.4 22 17 21.4 17 20.67V5.33C17 4.6 16.4 4 15.67 4ZM14.61 13.24L11.94 18.24C11.7 18.69 11 18.52 11 18V14.5H9.83C9.45 14.5 9.21 14.1 9.39 13.76L12.06 8.76C12.3 8.31 13 8.48 13 9V12.5H14.17C14.54 12.5 14.79 12.9 14.61 13.24Z" fill="url(#paint0_linear_523_117)"/>
<defs>
<linearGradient id="paint0_linear_523_117" x1="12" y1="2.4" x2="19.324" y2="18.2064" gradientUnits="userSpaceOnUse">
<stop stop-color="#345EC2"/>
<stop offset="1" stop-color="#113896"/>
</linearGradient>
</defs>
</svg>
